X:1
T:[ID 3-11a]
T:[ID 3-11a]
T:Bezeichnung standardisiert: Menuett Menuet
T:Urheber unbekannt Datum in der hier transkribierten schriftlichen Quelle: 1799
C:Urheber unbekannt
C:Datum in der hier transkribierten schriftlichen Quelle: 1799
%%score 1 2
L:1/8
M:3/4
K:Bb
V:1 treble nm="Primo"
V:2 treble nm="Secondo"
V:1
 b2 b2 b2 | a3 g f2 | g2 g2 g2 | f3 e d2 | e2 gege | d3 e f2 | gf e2 d2 | d2 c4 :: c2 ecec | %9
 B3 c d2 | d2 fdfd | c3 d e2 | e2 gege | d3 e f2 | (3gfe d2 Tc2 | c2 B4 :| %16
V:2
 !fermata!B2 d2 B2 | f3 e d2 | e2 e2 e2 | d3 c B2 | c2 ecec | B3 c d2 | ed c2 B2 | B2 F4 :: %8
 F2 cFcF | D3 F B2 | B2 dBdB | A3 B c2 | c2 ecec | B3 c d2 | (3edc B2 E2 | E2 D4 :| %16

